X: 1
T: The Reel Of Rio
R: reel
M: 4/4
L: 1/8
K: Gmaj
|:DEGA BABd|egg2 agef|gede gedB|AcBA GEE2|
DEGA BABd|egg2 agef|gede gedB|AcBA G4:|
|:dgg2 bgg2|bgag edBd|eBB2 GABd|e2dB AGEG|
DEGA BABd|egg2 agef|gede gedB|AcBA G4:|

